src/24x24/places/folder-gruvbox-mix-aqua-desktop.svg

<?xml version="1.0" encoding="UTF-8"?>
<svg width="24" height="24" version="1.1" xmlns="http://www.w3.org/2000/svg">
 <rect x="2" y="3.5" width="20" height="18" rx="1" ry="1" opacity=".2"/>
 <path d="m2 4.9v15.1c0 0.554 0.446 1 1 1h18c0.554 0 1-0.446 1-1v-15.1z" fill="#8bba7f"/>
 <path d="m3 3c-0.554 0-1 0.45-1 1v1h20v-1c0-0.55-0.446-1-1-1z" fill="#39433D"/>
 <path d="m8 19c-0.554 0-1 0.45-1 1v1h10v-1c0-0.55-0.446-1-1-1z" fill="#39433D"/>
 <path d="m3 3c-0.554 0-1 0.45-1 1v0.5c0-0.55 0.446-1 1-1h18c0.554 0 1 0.45 1 1v-0.5c0-0.55-0.446-1-1-1z" fill="#DCE0BB" opacity=".1"/>
</svg>

<svg xmlns="http://www.w3.org/2000/svg" width="24" height="24" version="1.1">
 <rect style="opacity:0.2" width="20" height="18" x="2" y="3.5" rx="1" ry="1"/>
 <path style="fill:#8bba7f" d="M 2,4.9 2,20 c 0,0.554 0.446,1 1,1 l 18,0 c 0.554,0 1,-0.446 1,-1 L 22,4.9 Z"/>
 <path style="fill:#39433D" d="M 3,3 C 2.446,3 2,3.45 2,4 V 5 H 22 V 4 C 22,3.45 21.554,3 21,3 Z"/>
 <path style="fill:#39433D" d="M 8,19 C 7.446,19 7,19.45 7,20 V 21 H 17 V 20 C 17,19.45 16.554,19 16,19 Z"/>
 <path style="opacity:0.1;fill:#DCE0BB" d="M 3,3 C 2.446,3 2,3.45 2,4 V 4.5 C 2,3.95 2.446,3.5 3,3.5 H 21 C 21.554,3.5 22,3.95 22,4.5 V 4 C 22,3.45 21.554,3 21,3 Z"/>
</svg>
